public/MLS-logos/Columbus-Crew.svg

<svg xmlns="http://www.w3.org/2000/svg" id="Layer_1" data-name="Layer 1" viewBox="0 0 800 800"><defs><style>.cls-1{fill:#fedd00;}.cls-2{fill:#fff;}</style></defs><title>CLB-Logo-New-Reversed</title><g id="CREST_FC" data-name="CREST FC"><g id="SHIELD"><polygon id="OUTLINE" class="cls-1" points="175.69 94.67 624.31 94.67 556.87 736.22 400 645.65 243.12 736.22 175.69 94.67"/><path id="FLAG" d="M195.74,112.73l62.43,593.95L400,624.8l141.82,81.88,62.43-593.95Z"/></g><g id="DETAIL"><path class="cls-2" d="M556.07,270.28,565,185.07,494.2,144.18H305.79L235,185.07l49.42,470.16L530.55,513.11l11-104.71-70.82-40.89-9.15,87.07-116.12,67L314.74,229.35H485.25l-9.15,87.07ZM464.55,633.42l-7.9-4.51,0-6.85,7.89-4.58.14,8,15.68-.09-.09-16.46L470,615.08l-13.3-7.55,0-23.77,7.89-4.59h15.82l8,4.52,0,45.15-8,4.59Zm.09-30.63,5.31,3,10.33-6.06,0-12.59-15.59.09Zm39.5,30.63-7.89-4.51-.05-45.15,7.89-4.59h15.82l8,4.52,0,6.84-8,4.58-.14-7.92-15.68.09.09,16.38,10.35-6.06,13.31,7.53,0,23.71-8,4.59Zm0-20.6.05,12.67,15.68-.09-.09-15.61-5.19-2.93Z"/><path class="cls-2" d="M491.74,800,474,789.84,456.48,800H446.19l-.09-66.23,10.29-6,.14,60.23L469,780.76l0-47,10.33-.09.09,47.16L491.78,788l-.13-60.07,10.48,5.8,0,66.31Zm-91.19,0-.09-70.69,31.74-.1,6,10.4-27.37.13.09,19.8,15.43-.09,6,10.39L410.8,770l.09,19.69,27.2-.09.09,10.43Zm-20.48,0L380,774.75l-8.17-4.69-12.28,7.1,0,22.75-10.33.09-.09-70.69,30.92-.1,10.4,5.9,0,24.12-8.36,4.85,8.32,4.61,0,31.31Zm-20.5-34.78L380,753.17l0-13.52-20.41.09ZM308.16,800l-10.29-5.9-.05-58.91,10.29-6,20.64,0,10.39,5.9.05,8.91-10.39,6-.14-10.33-20.5.09.09,49.92,20.5-.09-.09-10.25,10.48,5.8.05,8.91-10.42,6ZM573.32,72.18,563,66.28l0-8.9,10.29-6,.14,10.43,20.5-.09-.09-14.52L563,29.47l0-22.09,10.29-6h20.64L604.3,7.3l0,8.9-10.39,6-.13-10.33-20.5.09.09,11.58L604.3,41.18l0,25-10.41,6Zm-51.33,0-10.29-5.9,0-60.32,10.28-6,.14,61.85,20.5-.09L542.49.08,553,5.88l0,60.33-10.41,6Zm-61.57,0L460.33,1.5l30.92-.09L501.64,7.3l.05,21.58-8.36,4.85,8.31,4.61.05,27.87-10.41,6Zm10.29-25.37,0,15,20.5-.09-.09-17.36L483,39.74Zm0-11.94,20.46-11.95,0-11.08-20.41.09ZM439.92,72.18l-.09-58.71L427,21.05l0,51-10.33.09L416.61,21l-13-7.43.13,58.55-10.33.09L393.28,1.5l10.33-.09L421.81,12,439.88,1.42h10.39l.09,70.77Zm-87.63,0L342,66.28,342,6l10.29-6,.14,61.85,20.5-.09L372.79.08l10.48,5.8,0,60.33-10.41,6Zm-53.86,0L298.34,1.5l10.33-.09.09,60.44L336,61.76l-5.83,10.42Zm-41.09,0-10.29-5.9,0-58.9,10.29-6h20.63l10.4,5.89,0,58.91-10.41,6Zm.09-10.33,20.5-.09-.09-49.92-20.41.09ZM206,72.18l-10.29-5.9,0-58.9,10.29-6h20.64L237,7.3l0,8.9-10.39,6-.13-10.33-20.5.09.09,49.92,20.5-.09-.09-10.26L237,57.3l0,8.91-10.41,6Z"/></g></g></svg>

<?xml version="1.0" encoding="UTF-8" standalone="no"?>
<!DOCTYPE svg PUBLIC "-//W3C//DTD SVG 1.1//EN" "http://www.w3.org/Graphics/SVG/1.1/DTD/svg11.dtd">
<svg width="100%" height="100%" viewBox="0 0 800 800" version="1.1" xmlns="http://www.w3.org/2000/svg" xmlns:xlink="http://www.w3.org/1999/xlink" xml:space="preserve" xmlns:serif="http://www.serif.com/" style="fill-rule:evenodd;clip-rule:evenodd;stroke-linejoin:round;stroke-miterlimit:2;">
    <g id="CREST_FC">
        <g id="SHIELD">
            <path id="OUTLINE" d="M175.69,94.67L624.31,94.67L556.87,736.22L400,645.65L243.12,736.22L175.69,94.67Z" style="fill:rgb(254,221,0);fill-rule:nonzero;"/>
            <path id="FLAG" d="M195.74,112.73L258.17,706.68L400,624.8L541.82,706.68L604.25,112.73L195.74,112.73Z" style="fill-rule:nonzero;"/>
        </g>
        <g id="DETAIL">
            <path d="M556.07,270.28L565,185.07L494.2,144.18L305.79,144.18L235,185.07L284.42,655.23L530.55,513.11L541.55,408.4L470.73,367.51L461.58,454.58L345.46,521.58L314.74,229.35L485.25,229.35L476.1,316.42L556.07,270.28ZM464.55,633.42L456.65,628.91L456.65,622.06L464.54,617.48L464.68,625.48L480.36,625.39L480.27,608.93L470,615.08L456.7,607.53L456.7,583.76L464.59,579.17L480.41,579.17L488.41,583.69L488.41,628.84L480.41,633.43L464.55,633.42ZM464.64,602.79L469.95,605.79L480.28,599.73L480.28,587.14L464.69,587.23L464.64,602.79ZM504.14,633.42L496.25,628.91L496.2,583.76L504.09,579.17L519.91,579.17L527.91,583.69L527.91,590.53L519.91,595.11L519.77,587.19L504.09,587.28L504.18,603.66L514.53,597.6L527.84,605.13L527.84,628.84L519.84,633.43L504.14,633.42ZM504.14,612.82L504.19,625.49L519.87,625.4L519.78,609.79L514.59,606.86L504.14,612.82Z" style="fill:white;fill-rule:nonzero;"/>
            <path d="M491.74,800L474,789.84L456.48,800L446.19,800L446.1,733.77L456.39,727.77L456.53,788L469,780.76L469,733.76L479.33,733.67L479.42,780.83L491.78,788L491.65,727.93L502.13,733.73L502.13,800.04L491.74,800ZM400.55,800L400.46,729.31L432.2,729.21L438.2,739.61L410.83,739.74L410.92,759.54L426.35,759.45L432.35,769.84L410.8,770L410.89,789.69L438.09,789.6L438.18,800.03L400.55,800ZM380.07,800L380,774.75L371.83,770.06L359.55,777.16L359.55,799.91L349.22,800L349.13,729.31L380.05,729.21L390.45,735.11L390.45,759.23L382.09,764.08L390.41,768.69L390.41,800L380.07,800ZM359.57,765.22L380,753.17L380,739.65L359.59,739.74L359.57,765.22ZM308.16,800L297.87,794.1L297.82,735.19L308.11,729.19L328.75,729.19L339.14,735.09L339.19,744L328.8,750L328.66,739.67L308.16,739.76L308.25,789.68L328.75,789.59L328.66,779.34L339.14,785.14L339.19,794.05L328.77,800.05L308.16,800ZM573.32,72.18L563,66.28L563,57.38L573.29,51.38L573.43,61.81L593.93,61.72L593.84,47.2L563,29.47L563,7.38L573.29,1.38L593.93,1.38L604.3,7.3L604.3,16.2L593.91,22.2L593.78,11.87L573.28,11.96L573.37,23.54L604.3,41.18L604.3,66.18L593.89,72.18L573.32,72.18ZM521.99,72.18L511.7,66.28L511.7,5.96L521.98,-0.04L522.12,61.81L542.62,61.72L542.49,0.08L553,5.88L553,66.21L542.59,72.21L521.99,72.18ZM460.42,72.18L460.33,1.5L491.25,1.41L501.64,7.3L501.69,28.88L493.33,33.73L501.64,38.34L501.69,66.21L491.28,72.21L460.42,72.18ZM470.71,46.81L470.71,61.81L491.21,61.72L491.12,44.36L483,39.74L470.71,46.81ZM470.71,34.87L491.17,22.92L491.17,11.84L470.76,11.93L470.71,34.87ZM439.92,72.18L439.83,13.47L427,21.05L427,72.05L416.67,72.14L416.61,21L403.61,13.57L403.74,72.12L393.41,72.21L393.28,1.5L403.61,1.41L421.81,12L439.88,1.42L450.27,1.42L450.36,72.19L439.92,72.18ZM352.29,72.18L342,66.28L342,6L352.29,0L352.43,61.85L372.93,61.76L372.79,0.08L383.27,5.88L383.27,66.21L372.86,72.21L352.29,72.18ZM298.43,72.18L298.34,1.5L308.67,1.41L308.76,61.85L336,61.76L330.17,72.18L298.43,72.18ZM257.34,72.18L247.05,66.28L247.05,7.38L257.34,1.38L277.97,1.38L288.37,7.27L288.37,66.18L277.96,72.18L257.34,72.18ZM257.43,61.85L277.93,61.76L277.84,11.84L257.43,11.93L257.43,61.85ZM206,72.18L195.71,66.28L195.71,7.38L206,1.38L226.64,1.38L237,7.3L237,16.2L226.61,22.2L226.48,11.87L205.98,11.96L206.07,61.88L226.57,61.79L226.48,51.53L237,57.3L237,66.21L226.59,72.21L206,72.18Z" style="fill-rule:nonzero;"/>
        </g>
    </g>
</svg>
